svg/emoji_u1f3ac.svg

<?xml version="1.0" encoding="UTF-8"?>
<svg width="128" height="128" enable-background="new 0 0 128 128" xmlns="http://www.w3.org/2000/svg"><radialGradient id="l" cx="63.048" cy="52.7" r="76.756" gradientTransform="matrix(1 0 0 1.0008 0 -.0537)" gradientUnits="userSpaceOnUse"><stop stop-color="#00796B" offset="0"/><stop stop-color="#007365" offset=".2831"/><stop stop-color="#006355" offset=".6536"/><stop stop-color="#004D40" offset="1"/></radialGradient><path d="m116.05 124h-104c-2.21 0-4-1.79-4-4v-72.06h112v72.06c0 2.21-1.79 4-4 4z" fill="url(#l)"/><g opacity=".2"><path d="m117.05 50.94v69.06c0 0.55-0.45 1-1 1h-104c-0.55 0-1-0.45-1-1v-69.06h106m3-3h-112v72.06c0 2.21 1.79 4 4 4h104c2.21 0 4-1.79 4-4v-72.06z" fill="#424242"/></g><linearGradient id="h" x1="61.136" x2="61.136" y1="29.651" y2="52.558" gradientUnits="userSpaceOnUse"><stop stop-color="#FAFAFA" offset=".0042918"/><stop stop-color="#eee" offset="1"/></linearGradient><polygon points="45.42 35.67 61.14 51.94 76.85 51.94 61.14 35.67" fill="url(#h)"/><linearGradient id="g" x1="17.918" x2="17.918" y1="36.007" y2="52.385" gradientUnits="userSpaceOnUse"><stop stop-color="#616161" offset="0"/><stop stop-color="#212121" offset="1"/></linearGradient><polygon points="6.13 35.67 6.13 51.94 29.7 51.94 13.99 35.67" fill="url(#g)"/><linearGradient id="f" x1="29.704" x2="29.704" y1="29.651" y2="52.558" gradientUnits="userSpaceOnUse"><stop stop-color="#FAFAFA" offset=".0042918"/><stop stop-color="#eee" offset="1"/></linearGradient><polygon points="13.99 35.67 29.7 51.94 45.42 51.94 29.7 35.67" fill="url(#f)"/><linearGradient id="e" x1="45.42" x2="45.42" y1="36.007" y2="52.385" gradientUnits="userSpaceOnUse"><stop stop-color="#616161" offset="0"/><stop stop-color="#212121" offset="1"/></linearGradient><polygon points="29.7 35.67 45.42 51.94 61.14 51.94 45.42 35.67" fill="url(#e)"/><linearGradient id="d" x1="108.28" x2="108.28" y1="36.007" y2="52.385" gradientUnits="userSpaceOnUse"><stop stop-color="#616161" offset="0"/><stop stop-color="#212121" offset="1"/></linearGradient><polygon points="108.28 35.67 92.57 35.67 108.28 51.94 124 51.94" fill="url(#d)"/><linearGradient id="c" x1="116.14" x2="116.14" y1="29.651" y2="52.558" gradientUnits="userSpaceOnUse"><stop stop-color="#FAFAFA" offset=".0042918"/><stop stop-color="#eee" offset="1"/></linearGradient><polygon points="124 35.67 108.28 35.67 124 51.94" fill="url(#c)"/><linearGradient id="b" x1="92.568" x2="92.568" y1="29.651" y2="52.558" gradientUnits="userSpaceOnUse"><stop stop-color="#FAFAFA" offset=".0042918"/><stop stop-color="#eee" offset="1"/></linearGradient><polygon points="76.85 35.67 92.57 51.94 108.28 51.94 92.57 35.67" fill="url(#b)"/><linearGradient id="a" x1="76.852" x2="76.852" y1="36.007" y2="52.385" gradientUnits="userSpaceOnUse"><stop stop-color="#616161" offset="0"/><stop stop-color="#212121" offset="1"/></linearGradient><polygon points="61.14 35.67 76.85 51.94 92.57 51.94 76.85 35.67" fill="url(#a)"/><linearGradient id="v" x1="61.187" x2="61.187" y1="5.4576" y2="28.364" gradientTransform="matrix(.9913 -.1317 .1317 .9913 -3.6399 8.9722)" gradientUnits="userSpaceOnUse"><stop stop-color="#FAFAFA" offset=".0042918"/><stop stop-color="#eee" offset="1"/></linearGradient><polygon points="42.95 14.36 60.67 28.42 76.25 26.35 58.53 12.29" fill="url(#v)"/><linearGradient id="u" x1="17.967" x2="17.967" y1="11.819" y2="28.197" gradientTransform="matrix(.9913 -.1317 .1317 .9913 -3.6399 8.9722)" gradientUnits="userSpaceOnUse"><stop stop-color="#616161" offset="0"/><stop stop-color="#212121" offset="1"/></linearGradient><polygon points="4 19.54 6.14 35.67 29.51 32.56 11.79 18.5" fill="url(#u)"/><linearGradient id="t" x1="29.755" x2="29.755" y1="5.461" y2="28.368" gradientTransform="matrix(.9913 -.1317 .1317 .9913 -3.6399 8.9722)" gradientUnits="userSpaceOnUse"><stop stop-color="#FAFAFA" offset=".0042918"/><stop stop-color="#eee" offset="1"/></linearGradient><polygon points="11.79 18.5 29.51 32.56 45.09 30.49 27.37 16.43" fill="url(#t)"/><linearGradient id="s" x1="45.471" x2="45.471" y1="11.815" y2="28.193" gradientTransform="matrix(.9913 -.1317 .1317 .9913 -3.6399 8.9722)" gradientUnits="userSpaceOnUse"><stop stop-color="#616161" offset="0"/><stop stop-color="#212121" offset="1"/></linearGradient><polygon points="27.37 16.43 45.09 30.49 60.67 28.42 42.95 14.36" fill="url(#s)"/><linearGradient id="r" x1="108.34" x2="108.34" y1="11.808" y2="28.186" gradientTransform="matrix(.9913 -.1317 .1317 .9913 -3.6399 8.9722)" gradientUnits="userSpaceOnUse"><stop stop-color="#616161" offset="0"/><stop stop-color="#212121" offset="1"/></linearGradient><polygon points="105.26 6.07 89.68 8.14 107.4 22.2 122.98 20.13" fill="url(#r)"/><linearGradient id="q" x1="116.19" x2="116.19" y1="5.4507" y2="28.357" gradientTransform="matrix(.9913 -.1317 .1317 .9913 -3.6399 8.9722)" gradientUnits="userSpaceOnUse"><stop stop-color="#FAFAFA" offset=".0042918"/><stop stop-color="#eee" offset="1"/></linearGradient><polygon points="120.84 4 105.26 6.07 122.98 20.13" fill="url(#q)"/><linearGradient id="p" x1="92.62" x2="92.62" y1="5.4542" y2="28.361" gradientTransform="matrix(.9913 -.1317 .1317 .9913 -3.6399 8.9722)" gradientUnits="userSpaceOnUse"><stop stop-color="#FAFAFA" offset=".0042918"/><stop stop-color="#eee" offset="1"/></linearGradient><polygon points="74.11 10.22 91.83 24.27 107.4 22.2 89.68 8.14" fill="url(#p)"/><linearGradient id="o" x1="76.903" x2="76.903" y1="11.812" y2="28.19" gradientTransform="matrix(.9913 -.1317 .1317 .9913 -3.6399 8.9722)" gradientUnits="userSpaceOnUse"><stop stop-color="#616161" offset="0"/><stop stop-color="#212121" offset="1"/></linearGradient><polygon points="58.53 12.29 76.25 26.35 91.83 24.27 74.11 10.22" fill="url(#o)"/><g fill="#424242" opacity=".2"><path d="m121 38.67v10.27h-111.87v-10.27h111.87m3-3h-117.87v16.27h117.87v-16.27z"/><path d="m118.26 7.37 1.35 10.18-12.61 1.68-15.57 2.07-62.32 8.28-20.39 2.72-1.35-10.18 4.82-0.64 93.48-12.42 12.59-1.69m2.58-3.37-93.48 12.42-15.57 2.08-7.79 1.04 2.14 16.13 23.37-3.11 93.48-12.42-2.15-16.14z"/></g><linearGradient id="n" x1="16.048" x2="112.05" y1="69.955" y2="69.955" gradientUnits="userSpaceOnUse"><stop stop-color="#FAFAFA" offset=".0042918"/><stop stop-color="#eee" offset="1"/></linearGradient><rect x="16.05" y="67.95" width="96" height="4" fill="url(#n)"/><linearGradient id="m" x1="16.048" x2="112.05" y1="85.968" y2="85.968" gradientUnits="userSpaceOnUse"><stop stop-color="#FAFAFA" offset=".0042918"/><stop stop-color="#eee" offset="1"/></linearGradient><rect x="16.05" y="83.97" width="96" height="4" fill="url(#m)"/><linearGradient id="k" x1="16.048" x2="112.05" y1="101.98" y2="101.98" gradientUnits="userSpaceOnUse"><stop stop-color="#FAFAFA" offset=".0042918"/><stop stop-color="#eee" offset="1"/></linearGradient><rect x="16.05" y="99.98" width="96" height="4" fill="url(#k)"/><linearGradient id="j" x1="84.048" x2="88.048" y1="108.99" y2="108.99" gradientUnits="userSpaceOnUse"><stop stop-color="#FAFAFA" offset=".0042918"/><stop stop-color="#eee" offset="1"/></linearGradient><polygon points="84.05 115.99 84.05 101.98 88.05 101.98 88.05 115.99" fill="url(#j)"/><linearGradient id="i" x1="40.048" x2="44.048" y1="108.99" y2="108.99" gradientUnits="userSpaceOnUse"><stop stop-color="#FAFAFA" offset=".0042918"/><stop stop-color="#eee" offset="1"/></linearGradient><polygon points="40.05 115.99 40.05 101.98 44.05 101.98 44.05 115.99" fill="url(#i)"/><rect x="16.05" y="59.95" width="16" height="4" fill="#B2DFDB"/><rect x="16.05" y="75.96" width="24" height="4" fill="#B2DFDB"/><rect x="16.05" y="91.97" width="16" height="4" fill="#B2DFDB"/></svg>

<svg width="128" height="128" style="enable-background:new 0 0 128 128;" xmlns="http://www.w3.org/2000/svg" xmlns:xlink="http://www.w3.org/1999/xlink">
  <g>
    <radialGradient id="SVGID_1_" cx="63.0484" cy="52.6998" gradientTransform="matrix(1 0 0 1.0008 0 -0.0537)" gradientUnits="userSpaceOnUse" r="76.7565">
      <stop offset="0" style="stop-color:#00796B"/>
      <stop offset="0.2831" style="stop-color:#007365"/>
      <stop offset="0.6536" style="stop-color:#006355"/>
      <stop offset="1" style="stop-color:#004D40"/>
    </radialGradient>
    <path d="M116.05,124h-104c-2.21,0-4-1.79-4-4V47.94h112V120C120.05,122.21,118.26,124,116.05,124z" style="fill:url(#SVGID_1_);"/>
    <g style="opacity:0.2;">
      <path d="M117.05,50.94V120c0,0.55-0.45,1-1,1h-104c-0.55,0-1-0.45-1-1V50.94H117.05 M120.05,47.94h-112 V120c0,2.21,1.79,4,4,4h104c2.21,0,4-1.79,4-4V47.94L120.05,47.94z" style="fill:#424242;"/>
    </g>
    <g>
      <linearGradient id="SVGID_2_" gradientUnits="userSpaceOnUse" x1="61.1363" x2="61.1363" y1="29.6511" y2="52.558">
        <stop offset="4.291845e-03" style="stop-color:#FAFAFA"/>
        <stop offset="1" style="stop-color:#EEEEEE"/>
      </linearGradient>
      <polygon points="45.42,35.67 61.14,51.94 76.85,51.94 61.14,35.67 " style="fill:url(#SVGID_2_);"/>
      <linearGradient id="SVGID_3_" gradientUnits="userSpaceOnUse" x1="17.9175" x2="17.9175" y1="36.0072" y2="52.3851">
        <stop offset="0" style="stop-color:#616161"/>
        <stop offset="1" style="stop-color:#212121"/>
      </linearGradient>
      <polygon points="6.13,35.67 6.13,51.94 29.7,51.94 13.99,35.67 " style="fill:url(#SVGID_3_);"/>
      <linearGradient id="SVGID_4_" gradientUnits="userSpaceOnUse" x1="29.7045" x2="29.7045" y1="29.6511" y2="52.558">
        <stop offset="4.291845e-03" style="stop-color:#FAFAFA"/>
        <stop offset="1" style="stop-color:#EEEEEE"/>
      </linearGradient>
      <polygon points="13.99,35.67 29.7,51.94 45.42,51.94 29.7,35.67 " style="fill:url(#SVGID_4_);"/>
      <linearGradient id="SVGID_5_" gradientUnits="userSpaceOnUse" x1="45.4204" x2="45.4204" y1="36.0072" y2="52.3851">
        <stop offset="0" style="stop-color:#616161"/>
        <stop offset="1" style="stop-color:#212121"/>
      </linearGradient>
      <polygon points="29.7,35.67 45.42,51.94 61.14,51.94 45.42,35.67 " style="fill:url(#SVGID_5_);"/>
      <linearGradient id="SVGID_6_" gradientUnits="userSpaceOnUse" x1="108.2841" x2="108.2841" y1="36.0072" y2="52.3851">
        <stop offset="0" style="stop-color:#616161"/>
        <stop offset="1" style="stop-color:#212121"/>
      </linearGradient>
      <polygon points="108.28,35.67 92.57,35.67 108.28,51.94 124,51.94 " style="fill:url(#SVGID_6_);"/>
      <linearGradient id="SVGID_7_" gradientUnits="userSpaceOnUse" x1="116.142" x2="116.142" y1="29.6511" y2="52.558">
        <stop offset="4.291845e-03" style="stop-color:#FAFAFA"/>
        <stop offset="1" style="stop-color:#EEEEEE"/>
      </linearGradient>
      <polygon points="124,35.67 108.28,35.67 124,51.94 " style="fill:url(#SVGID_7_);"/>
      <linearGradient id="SVGID_8_" gradientUnits="userSpaceOnUse" x1="92.5682" x2="92.5682" y1="29.6511" y2="52.558">
        <stop offset="4.291845e-03" style="stop-color:#FAFAFA"/>
        <stop offset="1" style="stop-color:#EEEEEE"/>
      </linearGradient>
      <polygon points="76.85,35.67 92.57,51.94 108.28,51.94 92.57,35.67 " style="fill:url(#SVGID_8_);"/>
      <linearGradient id="SVGID_9_" gradientUnits="userSpaceOnUse" x1="76.8522" x2="76.8522" y1="36.0072" y2="52.3851">
        <stop offset="0" style="stop-color:#616161"/>
        <stop offset="1" style="stop-color:#212121"/>
      </linearGradient>
      <polygon points="61.14,35.67 76.85,51.94 92.57,51.94 76.85,35.67 " style="fill:url(#SVGID_9_);"/>
    </g>
    <g>
      <linearGradient id="SVGID_10_" gradientTransform="matrix(0.9913 -0.1317 0.1317 0.9913 -3.6399 8.9722)" gradientUnits="userSpaceOnUse" x1="61.1872" x2="61.1872" y1="5.4576" y2="28.3641">
        <stop offset="4.291845e-03" style="stop-color:#FAFAFA"/>
        <stop offset="1" style="stop-color:#EEEEEE"/>
      </linearGradient>
      <polygon points="42.95,14.36 60.67,28.42 76.25,26.35 58.53,12.29 " style="fill:url(#SVGID_10_);"/>
      <linearGradient id="SVGID_11_" gradientTransform="matrix(0.9913 -0.1317 0.1317 0.9913 -3.6399 8.9722)" gradientUnits="userSpaceOnUse" x1="17.9669" x2="17.9669" y1="11.8187" y2="28.1973">
        <stop offset="0" style="stop-color:#616161"/>
        <stop offset="1" style="stop-color:#212121"/>
      </linearGradient>
      <polygon points="4,19.54 6.14,35.67 29.51,32.56 11.79,18.5 " style="fill:url(#SVGID_11_);"/>
      <linearGradient id="SVGID_12_" gradientTransform="matrix(0.9913 -0.1317 0.1317 0.9913 -3.6399 8.9722)" gradientUnits="userSpaceOnUse" x1="29.7549" x2="29.7549" y1="5.461" y2="28.3676">
        <stop offset="4.291845e-03" style="stop-color:#FAFAFA"/>
        <stop offset="1" style="stop-color:#EEEEEE"/>
      </linearGradient>
      <polygon points="11.79,18.5 29.51,32.56 45.09,30.49 27.37,16.43 " style="fill:url(#SVGID_12_);"/>
      <linearGradient id="SVGID_13_" gradientTransform="matrix(0.9913 -0.1317 0.1317 0.9913 -3.6399 8.9722)" gradientUnits="userSpaceOnUse" x1="45.4711" x2="45.4711" y1="11.8153" y2="28.193">
        <stop offset="0" style="stop-color:#616161"/>
        <stop offset="1" style="stop-color:#212121"/>
      </linearGradient>
      <polygon points="27.37,16.43 45.09,30.49 60.67,28.42 42.95,14.36 " style="fill:url(#SVGID_13_);"/>
      <linearGradient id="SVGID_14_" gradientTransform="matrix(0.9913 -0.1317 0.1317 0.9913 -3.6399 8.9722)" gradientUnits="userSpaceOnUse" x1="108.3357" x2="108.3357" y1="11.8084" y2="28.1861">
        <stop offset="0" style="stop-color:#616161"/>
        <stop offset="1" style="stop-color:#212121"/>
      </linearGradient>
      <polygon points="105.26,6.07 89.68,8.14 107.4,22.2 122.98,20.13 " style="fill:url(#SVGID_14_);"/>
      <linearGradient id="SVGID_15_" gradientTransform="matrix(0.9913 -0.1317 0.1317 0.9913 -3.6399 8.9722)" gradientUnits="userSpaceOnUse" x1="116.1946" x2="116.1946" y1="5.4507" y2="28.3572">
        <stop offset="4.291845e-03" style="stop-color:#FAFAFA"/>
        <stop offset="1" style="stop-color:#EEEEEE"/>
      </linearGradient>
      <polygon points="120.84,4 105.26,6.07 122.98,20.13 " style="fill:url(#SVGID_15_);"/>
      <linearGradient id="SVGID_16_" gradientTransform="matrix(0.9913 -0.1317 0.1317 0.9913 -3.6399 8.9722)" gradientUnits="userSpaceOnUse" x1="92.6195" x2="92.6195" y1="5.4542" y2="28.3607">
        <stop offset="4.291845e-03" style="stop-color:#FAFAFA"/>
        <stop offset="1" style="stop-color:#EEEEEE"/>
      </linearGradient>
      <polygon points="74.11,10.22 91.83,24.27 107.4,22.2 89.68,8.14 " style="fill:url(#SVGID_16_);"/>
      <linearGradient id="SVGID_17_" gradientTransform="matrix(0.9913 -0.1317 0.1317 0.9913 -3.6399 8.9722)" gradientUnits="userSpaceOnUse" x1="76.9034" x2="76.9034" y1="11.8118" y2="28.1895">
        <stop offset="0" style="stop-color:#616161"/>
        <stop offset="1" style="stop-color:#212121"/>
      </linearGradient>
      <polygon points="58.53,12.29 76.25,26.35 91.83,24.27 74.11,10.22 " style="fill:url(#SVGID_17_);"/>
    </g>
    <g style="opacity:0.2;">
      <path d="M121,38.67v10.27h-12.72H92.57H76.85H61.14H45.42H29.7H9.13V38.67h4.86H29.7h15.72h15.72h15.72 h15.72h15.72H121 M124,35.67h-15.72H92.57H76.85H61.14H45.42H29.7H13.99H6.14H6.13v16.27H29.7h15.72h15.72h15.72h15.72h15.72H124 V35.67L124,35.67z" style="fill:#424242;"/>
      <path d="M118.26,7.37l1.35,10.18l-12.61,1.68L91.43,21.3l-15.58,2.07l-15.58,2.07l-15.58,2.07l-15.58,2.07 L8.72,32.3L7.37,22.12l4.82-0.64l15.58-2.07l15.58-2.07l15.58-2.07l15.58-2.07l15.58-2.07l15.58-2.07L118.26,7.37 M120.84,4 l-15.58,2.07L89.68,8.14l-15.58,2.07l-15.58,2.07l-15.58,2.07l-15.58,2.07L11.79,18.5L4,19.54l2.14,16.13l23.37-3.11l15.58-2.07 l15.58-2.07l15.58-2.07l15.58-2.07l15.58-2.07l15.58-2.07L120.84,4L120.84,4z" style="fill:#424242;"/>
    </g>
    <linearGradient id="SVGID_18_" gradientUnits="userSpaceOnUse" x1="16.0484" x2="112.0484" y1="69.9548" y2="69.9548">
      <stop offset="4.291845e-03" style="stop-color:#FAFAFA"/>
      <stop offset="1" style="stop-color:#EEEEEE"/>
    </linearGradient>
    <rect height="4" style="fill:url(#SVGID_18_);" width="96" x="16.05" y="67.95"/>
    <linearGradient id="SVGID_19_" gradientUnits="userSpaceOnUse" x1="16.0484" x2="112.0484" y1="85.9682" y2="85.9682">
      <stop offset="4.291845e-03" style="stop-color:#FAFAFA"/>
      <stop offset="1" style="stop-color:#EEEEEE"/>
    </linearGradient>
    <rect height="4" style="fill:url(#SVGID_19_);" width="96" x="16.05" y="83.97"/>
    <linearGradient id="SVGID_20_" gradientUnits="userSpaceOnUse" x1="16.0484" x2="112.0484" y1="101.9816" y2="101.9816">
      <stop offset="4.291845e-03" style="stop-color:#FAFAFA"/>
      <stop offset="1" style="stop-color:#EEEEEE"/>
    </linearGradient>
    <rect height="4" style="fill:url(#SVGID_20_);" width="96" x="16.05" y="99.98"/>
    <linearGradient id="SVGID_21_" gradientUnits="userSpaceOnUse" x1="84.0484" x2="88.0484" y1="108.9874" y2="108.9874">
      <stop offset="4.291845e-03" style="stop-color:#FAFAFA"/>
      <stop offset="1" style="stop-color:#EEEEEE"/>
    </linearGradient>
    <polygon points="84.05,115.99 84.05,101.98 88.05,101.98 88.05,115.99 " style="fill:url(#SVGID_21_);"/>
    <linearGradient id="SVGID_22_" gradientUnits="userSpaceOnUse" x1="40.0484" x2="44.0484" y1="108.9874" y2="108.9874">
      <stop offset="4.291845e-03" style="stop-color:#FAFAFA"/>
      <stop offset="1" style="stop-color:#EEEEEE"/>
    </linearGradient>
    <polygon points="40.05,115.99 40.05,101.98 44.05,101.98 44.05,115.99 " style="fill:url(#SVGID_22_);"/>
    <rect height="4" style="fill:#B2DFDB;" width="16" x="16.05" y="59.95"/>
    <rect height="4" style="fill:#B2DFDB;" width="24" x="16.05" y="75.96"/>
    <rect height="4" style="fill:#B2DFDB;" width="16" x="16.05" y="91.97"/>
  </g>
</svg>
